X: 3916
T: Blackberry Quadrille, The
R: jig
M: 6/8
K: Gmajor
|:B/c/|d^cd edc|d2 B G2 B|A2 F DBc|B2 G D2 B/c/|
dGd edG|d2 B G3|A2 F D2 F|G3 G2:|
|:[B,/F/][C/E/]|D2 E [C2E2] D|[B,B]DG B2 B|c2 A F2 D|GBA GG/F/E|
D3 [C3E3]|[B,B]DG B/c/dB|cAF DEF|G3 G2:|

